icons/typography-24.svg

<svg xmlns="http://www.w3.org/2000/svg" width="24" height="24" viewBox="0 0 24 24"><path d="M10.414 15H3.586l-1.631 4.505a.75.75 0 11-1.41-.51l5.08-14.03a1.463 1.463 0 012.75 0l5.08 14.03a.75.75 0 11-1.411.51zm4.532-5.098c.913-1.683 2.703-2.205 4.284-2.205 1.047 0 2.084.312 2.878.885.801.577 1.392 1.455 1.392 2.548v8.12a.75.75 0 01-1.5 0v-.06l-.044.025c-.893.52-2.096.785-3.451.785-1.051 0-2.048-.315-2.795-.948-.76-.643-1.217-1.578-1.217-2.702 0-.919.349-1.861 1.168-2.563.81-.694 2-1.087 3.569-1.087H22v-1.57c0-.503-.263-.967-.769-1.332-.513-.37-1.235-.6-2.001-.6-1.319 0-2.429.43-2.966 1.42a.75.75 0 01-1.318-.716zM9.87 13.5L7 5.572 4.13 13.5zm12.13.7h-2.77c-1.331 0-2.134.333-2.593.726a1.822 1.822 0 00-.644 1.424c0 .689.267 1.203.686 1.557.43.365 1.065.593 1.826.593 1.183 0 2.102-.235 2.697-.581.582-.34.798-.74.798-1.134z"/></svg>

<svg xmlns="http://www.w3.org/2000/svg" width="24" height="24" viewBox="0 0 24 24">
  <defs/>
  <path d="M10.414,15 L3.586,15 L1.955,19.505 C1.869,19.764 1.65,19.957 1.381,20.007 C1.113,20.057 0.839,19.958 0.665,19.748 C0.491,19.537 0.445,19.249 0.545,18.995 L5.625,4.965 C5.835,4.387 6.385,4.002 7,4.002 C7.615,4.002 8.165,4.387 8.375,4.965 L13.455,18.995 C13.596,19.385 13.394,19.815 13.005,19.955 C12.615,20.096 12.185,19.895 12.044,19.505 Z M14.946,9.902 C15.859,8.219 17.649,7.697 19.23,7.697 C20.277,7.697 21.314,8.009 22.108,8.582 C22.909,9.159 23.5,10.037 23.5,11.13 L23.5,19.25 C23.5,19.664 23.164,20 22.75,20 C22.336,20 22,19.664 22,19.25 L22,19.19 C21.985,19.198 21.971,19.207 21.956,19.215 C21.063,19.735 19.86,20 18.505,20 C17.454,20 16.457,19.685 15.71,19.052 C14.95,18.409 14.493,17.474 14.493,16.35 C14.493,15.431 14.842,14.489 15.661,13.787 C16.471,13.093 17.661,12.7 19.23,12.7 L22,12.7 L22,11.13 C22,10.627 21.737,10.163 21.231,9.798 C20.718,9.428 19.996,9.198 19.23,9.198 C17.911,9.198 16.801,9.628 16.264,10.618 C16.064,10.977 15.612,11.109 15.251,10.913 C14.889,10.716 14.753,10.265 14.946,9.902 Z M9.87,13.5 L7,5.572 L4.13,13.5 Z M22,14.2 L19.23,14.2 C17.899,14.2 17.096,14.533 16.637,14.926 C16.219,15.28 15.983,15.803 15.993,16.35 C15.993,17.039 16.26,17.553 16.679,17.907 C17.109,18.272 17.744,18.5 18.505,18.5 C19.688,18.5 20.607,18.265 21.202,17.919 C21.784,17.579 22,17.179 22,16.785 Z"/>
</svg>
